assets/images/icons/instagram.svg

<svg width="24" height="24" viewBox="0 0 24 24" fill="none" xmlns="http://www.w3.org/2000/svg">
<g clip-path="url(#clip0_3_807)">
<path fill-rule="evenodd" clip-rule="evenodd" d="M23.9773 7.05607C23.9211 5.78085 23.7149 4.90416 23.4195 4.14449C23.1147 3.33812 22.6459 2.61617 22.0316 2.01602C21.4315 1.40652 20.7048 0.932921 19.9077 0.632936C19.1437 0.337529 18.2715 0.131312 16.9963 0.0750879C15.7116 0.0141019 15.3037 0 12.0453 0C8.78686 0 8.379 0.0141019 7.09903 0.0703262C5.82382 0.126551 4.94712 0.332951 4.18763 0.628174C3.38108 0.932922 2.65914 1.40176 2.05899 2.01602C1.44949 2.61617 0.976072 3.34288 0.675904 4.13991C0.380498 4.90416 0.174281 5.77609 0.118057 7.0513C0.0570706 8.33604 0.0429688 8.7439 0.0429688 12.0023C0.0429688 15.2608 0.0570706 15.6686 0.113295 16.9486C0.169519 18.2238 0.375919 19.1005 0.671326 19.8602C0.976072 20.6666 1.44949 21.3885 2.05899 21.9887C2.65914 22.5982 3.38584 23.0718 4.18287 23.3718C4.94712 23.6672 5.81906 23.8734 7.09445 23.9296C8.37424 23.986 8.78228 23.9999 12.0407 23.9999C15.2992 23.9999 15.707 23.986 16.987 23.9296C18.2622 23.8734 19.1389 23.6672 19.8984 23.3718C21.5113 22.7482 22.7865 21.4729 23.4101 19.8602C23.7053 19.096 23.9117 18.2238 23.968 16.9486C24.0242 15.6686 24.0383 15.2608 24.0383 12.0023C24.0383 8.7439 24.0335 8.33604 23.9773 7.05607ZM21.8161 16.8549C21.7644 18.027 21.5675 18.6599 21.4034 19.0819C21.0002 20.1274 20.1704 20.9572 19.1248 21.3605C18.7028 21.5246 18.0653 21.7215 16.8978 21.7729C15.6319 21.8293 15.2523 21.8433 12.0501 21.8433C8.84784 21.8433 8.46343 21.8293 7.20214 21.7729C6.03003 21.7215 5.3971 21.5246 4.97514 21.3605C4.45484 21.1682 3.98123 20.8634 3.59682 20.4649C3.19831 20.0758 2.89356 19.6069 2.70126 19.0866C2.53717 18.6647 2.34029 18.027 2.28883 16.8596C2.23242 15.5937 2.2185 15.2139 2.2185 12.0117C2.2185 8.80946 2.23242 8.42505 2.28883 7.16394C2.34029 5.99183 2.53717 5.3589 2.70126 4.93694C2.89356 4.41645 3.19831 3.94303 3.60158 3.55843C3.99057 3.15992 4.45942 2.85517 4.9799 2.66306C5.40186 2.49896 6.03956 2.30209 7.2069 2.25044C8.47277 2.19422 8.8526 2.18011 12.0546 2.18011C15.2616 2.18011 15.6413 2.19422 16.9026 2.25044C18.0747 2.30209 18.7076 2.49896 19.1296 2.66306C19.6499 2.85517 20.1235 3.15992 20.5079 3.55843C20.9064 3.94761 21.2111 4.41645 21.4034 4.93694C21.5675 5.3589 21.7644 5.99641 21.8161 7.16394C21.8723 8.42981 21.8864 8.80946 21.8864 12.0117C21.8864 15.2139 21.8723 15.589 21.8161 16.8549ZM12.0442 5.83691C8.64049 5.83691 5.87891 8.59832 5.87891 12.0022C5.87891 15.406 8.64049 18.1674 12.0442 18.1674C15.448 18.1674 18.2094 15.406 18.2094 12.0022C18.2094 8.59832 15.448 5.83691 12.0442 5.83691ZM12.0442 16.0014C9.83604 16.0014 8.04492 14.2105 8.04492 12.0022C8.04492 9.79386 9.83604 8.00293 12.0442 8.00293C14.2525 8.00293 16.0434 9.79386 16.0434 12.0022C16.0434 14.2105 14.2525 16.0014 12.0442 16.0014ZM18.4549 7.03291C19.25 7.03291 19.8944 6.38844 19.8944 5.5936C19.8944 4.79859 19.25 4.1543 18.4549 4.1543C17.6601 4.1543 17.0156 4.79859 17.0156 5.5936C17.0156 6.38844 17.6601 7.03291 18.4549 7.03291Z" fill="white"/>
</g>
<defs>
<clipPath id="clip0_3_807">
<rect width="24" height="24" fill="white"/>
</clipPath>
</defs>
</svg>

<svg width="24" height="24" fill="none" xmlns="http://www.w3.org/2000/svg"><g clip-path="url(#a)"><path fill-rule="evenodd" clip-rule="evenodd" d="M23.977 7.056c-.056-1.275-.262-2.152-.558-2.912a5.857 5.857 0 0 0-1.387-2.128A5.905 5.905 0 0 0 19.908.633C19.144.338 18.27.13 16.996.075 15.712.015 15.304 0 12.046 0c-3.26 0-3.667.014-4.947.07-1.275.057-2.152.263-2.911.558a5.856 5.856 0 0 0-2.129 1.388A5.909 5.909 0 0 0 .676 4.14C.38 4.904.174 5.776.118 7.05.058 8.336.043 8.744.043 12.002c0 3.259.014 3.667.07 4.947.057 1.275.263 2.151.558 2.911A5.918 5.918 0 0 0 2.06 21.99c.6.61 1.327 1.083 2.124 1.383.764.295 1.636.501 2.911.558 1.28.056 1.688.07 4.947.07 3.258 0 3.666-.014 4.946-.07 1.275-.057 2.152-.263 2.911-.558a6.139 6.139 0 0 0 3.512-3.512c.295-.764.502-1.636.558-2.911.056-1.28.07-1.688.07-4.947 0-3.258-.005-3.666-.06-4.946zm-2.16 9.799c-.053 1.172-.25 1.805-.414 2.227a3.98 3.98 0 0 1-2.278 2.278c-.422.165-1.06.361-2.227.413-1.266.056-1.646.07-4.848.07s-3.587-.014-4.848-.07c-1.172-.052-1.805-.248-2.227-.413a3.693 3.693 0 0 1-1.378-.895 3.73 3.73 0 0 1-.896-1.378c-.164-.422-.36-1.06-.412-2.227-.057-1.266-.07-1.646-.07-4.848 0-3.203.013-3.587.07-4.848.051-1.172.248-1.805.412-2.227.193-.52.497-.994.9-1.379a3.726 3.726 0 0 1 1.379-.895c.422-.164 1.06-.36 2.227-.413 1.266-.056 1.646-.07 4.848-.07 3.207 0 3.586.014 4.848.07 1.172.052 1.805.249 2.227.413.52.192.994.497 1.378.895.398.39.703.858.895 1.379.165.422.361 1.06.413 2.227.056 1.266.07 1.645.07 4.848 0 3.202-.014 3.577-.07 4.843zM12.043 5.837a6.167 6.167 0 0 0-6.165 6.165 6.167 6.167 0 0 0 6.165 6.165 6.167 6.167 0 0 0 6.165-6.165 6.167 6.167 0 0 0-6.165-6.165zm0 10.164a4 4 0 1 1 .001-8 4 4 0 0 1 0 8zm6.41-8.968a1.44 1.44 0 1 0 .001-2.879 1.44 1.44 0 0 0 0 2.879z" fill="#fff"/></g><defs><clipPath id="a"><path fill="#fff" d="M0 0h24v24H0z"/></clipPath></defs></svg>
